svg/rubber.svg

<svg xmlns="http://www.w3.org/2000/svg" viewBox="0 0 65 59" enable-background="new 0 0 65 59"><style type="text/css">.st0{fill:#333333;}</style><title>rubber</title><desc>Created with Sketch.</desc><path class="st0" d="M63.5 19.8l-18.4-18.4c-.8-.8-2-.8-2.8 0l-39.6 39.6c-2.3 2.3-2.3 6.1 0 8.5l5.5 5.5h-2.2c-.6 0-1 .4-1 1v2c0 .6.4 1 1 1h46c.6 0 1-.4 1-1v-2c0-.6-.4-1-1-1h-20.9l32.4-32.4c.8-.7.8-2 0-2.8zm-58 24l18.4-18.4 15.6 15.6-13.8 13.8h-12l-8.1-8.1c-.8-.8-.8-2.1-.1-2.9z"/></svg>

<?xml version="1.0" encoding="utf-8"?>
<!-- Generator: Adobe Illustrator 21.0.0, SVG Export Plug-In . SVG Version: 6.00 Build 0)  -->
<svg version="1.1" id="Layer_1" xmlns="http://www.w3.org/2000/svg" xmlns:xlink="http://www.w3.org/1999/xlink" x="0px" y="0px"
	 viewBox="0 0 65 59" style="enable-background:new 0 0 65 59;" xml:space="preserve">
<style type="text/css">
	.st0{fill:#333333;}
</style>
<title>rubber</title>
<desc>Created with Sketch.</desc>
<path class="st0" d="M63.5,19.8L45.1,1.4c-0.8-0.8-2-0.8-2.8,0L2.7,41c-2.3,2.3-2.3,6.1,0,8.5L8.2,55H6c-0.6,0-1,0.4-1,1v2
	c0,0.6,0.4,1,1,1h46c0.6,0,1-0.4,1-1v-2c0-0.6-0.4-1-1-1H31.1l32.4-32.4C64.3,21.9,64.3,20.6,63.5,19.8z M5.5,43.8l18.4-18.4
	L39.5,41L25.7,54.8h-12l-8.1-8.1C4.8,45.9,4.8,44.6,5.5,43.8z"/>
</svg>
